X: 220
T: Father Tom's wager
C: anon.
O: Ireland
B: Francis O'Neill: "The Dance Music of Ireland" (1907) no. 220
R: Double jig
Z: Transcribed by Frank Nordberg - http://www.musicaviva.com
F: http://www.musicaviva.com/abc/tunes/ireland/oneill-1001/oneill-1001-022
0.abc
M: 6/8
L: 1/8
K: G
(B/c/)|(d<g)e dBG|AEF GDB,|G,B,D GBd|{d}cBc ABc|dge dBG|AEF GDB,|G,B,D GB
d|cAF G2:|
|:(d/c/)|Bdg bag|fed cAF|DGG FAA|GBB ABc|Bdg bag|gfe dBG|cec dBG|cAF G2:|


